icons/timer.svg

<svg width="24" height="24" viewBox="0 0 24 24" fill="none" xmlns="http://www.w3.org/2000/svg">
<path fill-rule="evenodd" clip-rule="evenodd" d="M8 2C8 1.44772 8.44772 1 9 1H15C15.5523 1 16 1.44772 16 2C16 2.55228 15.5523 3 15 3H9C8.44772 3 8 2.55228 8 2ZM12 6C8.13401 6 5 9.13401 5 13C5 16.866 8.13401 20 12 20C15.866 20 19 16.866 19 13C19 11.0667 18.2176 9.3181 16.9497 8.05025C15.6819 6.78241 13.9333 6 12 6ZM3 13C3 8.02944 7.02944 4 12 4C14.1246 4 16.0784 4.73715 17.6176 5.96815L18.7929 4.79289C19.1834 4.40237 19.8166 4.40237 20.2071 4.79289C20.5976 5.18342 20.5976 5.81658 20.2071 6.20711L19.0319 7.38236C20.2628 8.92157 21 10.8754 21 13C21 17.9706 16.9706 22 12 22C7.02944 22 3 17.9706 3 13ZM12 8C12.5523 8 13 8.44772 13 9V13C13 13.5523 12.5523 14 12 14C11.4477 14 11 13.5523 11 13V9C11 8.44772 11.4477 8 12 8Z" fill="black"/>
</svg>

<svg
  width="24"
  height="24"
  viewBox="0 0 24 24"
  xmlns="http://www.w3.org/2000/svg"
>
  <path
    fill-rule="evenodd"
    clip-rule="evenodd"
    d="M8 2a1 1 0 0 1 1-1h6a1 1 0 1 1 0 2H9a1 1 0 0 1-1-1zm4 4a7 7 0 1 0 0 14 7 7 0 0 0 0-14zm-9 7a9 9 0 0 1 14.618-7.032l1.175-1.175a1 1 0 1 1 1.414 1.414l-1.175 1.175A9 9 0 1 1 3 13zm9-5a1 1 0 0 1 1 1v4a1 1 0 1 1-2 0V9a1 1 0 0 1 1-1z"
  />
</svg>
